flaticon/productivity-and-development/keys.svg

<svg xmlns="http://www.w3.org/2000/svg" width="32" height="32" viewBox="0 0 24 24">
    <path d="M 5.691406 6.828125 C 4.949219 6.828125 4.347656 6.226562 4.347656 5.484375 C 4.347656 4.742188 4.949219 4.140625 5.691406 4.140625 C 6.144531 4.140625 6.546875 4.367188 6.789062 4.710938 L 7.425781 4.074219 C 7.015625 3.570312 6.390625 3.246094 5.691406 3.246094 C 4.457031 3.246094 3.453125 4.25 3.453125 5.484375 C 3.453125 6.722656 4.457031 7.722656 5.691406 7.722656 C 6.402344 7.722656 7.035156 7.390625 7.445312 6.875 L 6.808594 6.234375 C 6.566406 6.59375 6.15625 6.828125 5.691406 6.828125 Z M 5.691406 6.828125"/>
    <path d="M0 10.925781L10.921875 10.925781 10.921875.00390625 0 .00390625zM1.019531 1.023438L9.898438 1.023438 9.898438 9.902344 1.019531 9.902344zM13.078125.00390625L13.078125 10.925781 24 10.925781 24 .00390625zM22.980469 9.902344L14.101562 9.902344 14.101562 1.023438 22.980469 1.023438zM0 23.996094L10.921875 23.996094 10.921875 13.074219 0 13.074219zM1.019531 14.097656L9.898438 14.097656 9.898438 22.976562 1.019531 22.976562zM13.078125 23.996094L24 23.996094 24 13.074219 13.078125 13.074219zM14.101562 14.097656L22.980469 14.097656 22.980469 22.976562 14.101562 22.976562zM14.101562 14.097656"/>
    <path d="M17.097656 4.910156L18.25 7.25 18.820312 7.25 19.980469 4.910156 19.980469 7.605469 20.933594 7.605469 20.933594 3.320312 19.648438 3.320312 18.539062 5.675781 17.4375 3.320312 16.144531 3.320312 16.144531 7.605469 17.097656 7.605469zM5.460938 17.988281L4.535156 16.394531 3.5 16.394531 4.984375 18.988281 4.984375 20.679688 5.9375 20.679688 5.9375 18.988281 7.421875 16.394531 6.386719 16.394531zM19.234375 16.394531L17.617188 18.152344 17.617188 16.394531 16.660156 16.394531 16.660156 20.679688 17.617188 20.679688 17.617188 19.464844 18.046875 18.988281 19.300781 20.679688 20.417969 20.679688C20.222656 20.40625 19.925781 19.988281 19.527344 19.429688 19.132812 18.875 18.859375 18.492188 18.714844 18.289062L20.417969 16.394531zM19.234375 16.394531"/>
</svg>

<svg xmlns="http://www.w3.org/2000/svg" width="32" height="32" viewBox="0 0 24 24">
    <path d="M5.691 6.828A1.344 1.344 0 1 1 6.79 4.711l.637-.637a2.234 2.234 0 0 0-1.735-.828 2.238 2.238 0 1 0 1.754 3.629l-.636-.64c-.243.359-.653.593-1.118.593zm0 0"/>
    <path d="M0 10.926h10.922V.004H0zm1.02-9.903h8.878v8.88H1.02zm0 0M13.078.004v10.922H24V.004zm9.902 9.898h-8.878V1.023h8.878zm0 0M0 23.996h10.922V13.074H0zm1.02-9.898h8.878v8.879H1.02zm0 0M13.078 23.996H24V13.074H13.078zm1.024-9.898h8.878v8.879h-8.878zm0 0"/>
    <path d="M17.098 4.91l1.152 2.34h.57l1.16-2.34v2.695h.954V3.32h-1.286L18.54 5.676 17.437 3.32h-1.292v4.285h.953zm0 0M5.46 17.988l-.925-1.593H3.5l1.484 2.593v1.692h.954v-1.692l1.484-2.593H6.387zm0 0M19.234 16.395l-1.617 1.757v-1.757h-.957v4.285h.957v-1.215l.43-.477L19.3 20.68h1.117l-.89-1.25-.813-1.14 1.703-1.895zm0 0"/>
</svg>
